X:1
T:Title
%%score { ( 1 3 ) | ( 2 4 ) }
L:1/8
M:6/8
K:Ab
V:1 treble nm="Grand Piano"
V:3 treble 
V:2 bass 
V:4 bass 
V:1
 z3 z2[Q:1/4=93] [CA]/[DB]/ | [Ec]>[Ec][Ec] [Ec][DB][CA] | B<A z F<[FA][DF] | %3
 [CE]>[CA][CA] [CA][DB][Ec] | c>BA B2 [CA]/[DB]/ | [Ec]>[Ec][Ec] [Ec][DB][CA] | B<A z F<[FA]F | %7
 E>AA ABc | B>AG [CEA]3 | .[ce]6 | [Ac]>[GB][GB] [GB]3 | .[Gd]6 | [Ec]6 | .[=Ec]6 | %14
[M:7/8] [CGB]>[CFA][CFA] [DFA]3 [A,DF] |[M:3/4] [A,CE]<[A,CE] [CEA][EAc]/[EAc]/- [EAc][GB] | %16
[M:5/8] A-A- A3 |] %17
V:2
 z3 z2 [A,,A,] | [A,,A,]>[A,,A,][A,,A,] [A,,A,][A,,A,][A,,A,] | %2
 [D,F,D]<[D,F,D] z [D,A,D]<[D,A,][D,A,] | [A,,A,]>[A,,E,][A,,E,] [A,,E,][A,,E,][A,,A,] | %4
 [F,A,=D]>[F,A,D][F,A,D] [E,G,_D]2 [A,,E,] | [A,,E,]>[A,,E,][A,,E,] [A,,E,][A,,E,][A,,E,] | %6
 [D,F,D]<[D,F,D] z [D,A,D]<[D,A,][D,A,D] | [E,A,C]>[E,A,C][E,A,C] [E,A,C][E,A,D][E,A,E] | %8
 [E,DE]>[E,CE][E,B,E] A,,3 | A,A,A, A,A,A, | [E,E]>[E,E][E,E] [E,E]3 | [E,B,]E,E, E,[K:treble]GG | %12
 [A,,A,]C,E, A,3 | [C,G,]C,C, C,[C,G,]C, |[M:7/8] F,>F,F, D,3 D, |[M:3/4] E,<E, E,E,/E,/- E,D | %16
[M:5/8] z/ C3/2D C2 |] %17
V:3
 x6 | x6 | x6 | x6 | x6 | x6 | x6 | x6 | x6 | EEE E[EBd][EAc] | x6 | z B,B, B,ed | z A,A, z3 | %13
 z G,G, G,[=EB][CEG] |[M:7/8] x7 |[M:3/4] x6 |[M:5/8] [CE]<EF E2 |] %17
V:4
 x6 | x6 | x6 | x6 | x6 | x6 | x6 | x6 | x6 | x6 | x6 | x4[K:treble] x2 | x6 | x6 |[M:7/8] x7 | %15
[M:3/4] x6 |[M:5/8] A,,-A,,- A,,3 |] %17

